X:273
T:Steirer (71.)
C:traditionell
A:Salzkammergut
S:MIDI erhalten von Christian Amon. Nach einer kopie im besitz von Johann Stoeckl eines manuscriptes. Stoeckl(zitiert von Amon): "diese sammlung wurde 1935 im hause der familie Hohenlohe-Schillingfuerst gefunden. Sie wurde von einem der beiden brueder Steinegger 1866 verfasst. Die originale sind im Ausseer Kammerhofmuseum".
M:3/4
L:1/8
K:G
V:1
Bd |\
gB g3 a | bd b3 a | af dc' ba | gB g2 Bd |\
gB g3 a | bd b3 a | af dc' ba | g4 |*
V:2
ga |\
bd b3 c' | d'g d'3 c' | c'a fe' d'c' | bd b2 ga |\
bd b3 c' | d'g d'3 c' | c'a fe' d'c' | b4 |*
